frontend_react/src/assets/images/blob_y09.svg

<svg viewBox="0 0 100 100" xmlns="http://www.w3.org/2000/svg">
  <defs>
    <linearGradient id="a" x1="0" x2="1" y1="1" y2="0">
      <stop stop-color="rgba(255, 199, 54, 1)" offset="0%"/>
      <stop stop-color="rgba(255, 199, 54, 1)" offset="100%"/>
    </linearGradient>
  </defs>
  <path fill="url(#a)" d="M16.1-27.8c6.9 3.8 15.9 4 19.5 8 3.5 4 1.7 11.9 2 20 .4 8.1 3 16.4.1 21.6-2.9 5.2-11.3 7.2-18.5 6.4C12 27.4 6 23.7.3 23.1c-5.6-.5-11 2-18.2 2.9-7.2.8-16.2-.1-20.9-4.8-4.6-4.6-4.8-12.9-.7-18.8 4.1-6 12.5-9.6 18.2-12.4 5.6-2.9 8.4-5.1 11.5-11.1C-6.7-27.1-3.3-36.9.7-38c3.9-1.2 8.6 6.3 15.4 10.2Z" transform="translate(50 50)" style="transition:all .3s ease 0s"/>
</svg>

<!--?xml version="1.0" standalone="no"?-->
              <svg id="sw-js-blob-svg" viewBox="0 0 100 100" xmlns="http://www.w3.org/2000/svg" version="1.1">
                    <defs> 
                        <linearGradient id="sw-gradient" x1="0" x2="1" y1="1" y2="0">
                            <stop id="stop1" stop-color="rgba(255, 199, 54, 1)" offset="0%"></stop>
                            <stop id="stop2" stop-color="rgba(255, 199, 54, 1)" offset="100%"></stop>
                        </linearGradient>
                    </defs>
                <path fill="url(#sw-gradient)" d="M16.1,-27.8C23,-24,32,-23.8,35.6,-19.8C39.1,-15.8,37.3,-7.9,37.6,0.2C38,8.3,40.6,16.6,37.7,21.8C34.8,27,26.4,29,19.2,28.2C12,27.4,6,23.7,0.3,23.1C-5.3,22.6,-10.7,25.1,-17.9,26C-25.1,26.8,-34.1,25.9,-38.8,21.2C-43.4,16.6,-43.6,8.3,-39.5,2.4C-35.4,-3.6,-27,-7.2,-21.3,-10C-15.7,-12.9,-12.9,-15.1,-9.8,-21.1C-6.7,-27.1,-3.3,-36.9,0.7,-38C4.6,-39.2,9.3,-31.7,16.1,-27.8Z" width="100%" height="100%" transform="translate(50 50)" stroke-width="0" style="transition: all 0.3s ease 0s;" stroke="url(#sw-gradient)"></path>
              </svg>
